X:125
M:4/4
L:1/4
K:Db
A | A2 G F | F2 E F | (G B) A G | F3 A | d2 c B | B2 A =G | A3 A | d2 d c | B2 B B | e2 e d | c2 B A | d2 d d | d2 c3/2 d/ | !fermata!d2 "^Refrain" A A | A4- | A2 A A | A4- | A2 !sintro!F A | B2 B d | d2 c3/2 d/ | d3 !eintro!|]
